src/assets/icons/copy.svg

<svg width="16" height="16" viewBox="0 0 16 16" fill="none" xmlns="http://www.w3.org/2000/svg">
<path d="M13.3333 6H7.33333C6.59695 6 6 6.59695 6 7.33333V13.3333C6 14.0697 6.59695 14.6667 7.33333 14.6667H13.3333C14.0697 14.6667 14.6667 14.0697 14.6667 13.3333V7.33333C14.6667 6.59695 14.0697 6 13.3333 6Z" stroke="#726FB7" stroke-linecap="round" stroke-linejoin="round"/>
<path d="M3.33331 9.99992H2.66665C2.31302 9.99992 1.97389 9.85944 1.72384 9.60939C1.47379 9.35935 1.33331 9.02021 1.33331 8.66659V2.66659C1.33331 2.31296 1.47379 1.97382 1.72384 1.72378C1.97389 1.47373 2.31302 1.33325 2.66665 1.33325H8.66665C9.02027 1.33325 9.35941 1.47373 9.60946 1.72378C9.8595 1.97382 9.99998 2.31296 9.99998 2.66659V3.33325" stroke="#726FB7" stroke-linecap="round" stroke-linejoin="round"/>
</svg>

<svg width="16" height="16" fill="none" xmlns="http://www.w3.org/2000/svg"><path d="M13.333 6h-6C6.597 6 6 6.597 6 7.333v6c0 .737.597 1.334 1.333 1.334h6c.737 0 1.334-.597 1.334-1.334v-6c0-.736-.597-1.333-1.334-1.333Z" stroke="#726FB7" stroke-linecap="round" stroke-linejoin="round"/><path d="M3.333 10h-.666a1.333 1.333 0 0 1-1.334-1.333v-6a1.333 1.333 0 0 1 1.334-1.334h6A1.333 1.333 0 0 1 10 2.667v.666" stroke="#726FB7" stroke-linecap="round" stroke-linejoin="round"/></svg>
